X:56
T:Gan Ainm (Ireland Green?)
R:Reel
S:Tulla Ceilidh Band, Clare
D:Tulla Ceilidh Band, 'Ireland Green' (label missing)
H:Three reels (56-58) played as a set. Very much in PJ Hayes territory.
Z:Bernie Stocks
M:4/4
K:G
cAeA cAeA | cAeA dBGB | cAeA cAef | gfge dBGB | cAeA cAeA | 
cAeA dBGB | cBAG ABcd | efed cAAB || c2ec gcec | gcec dBGB | 
c2ec gceg | afge dBGB | c2ec gcec | gcec dBGB | cBAG ABcd | efed cAAB ||
<end>
<start>
